X:1
T: Kemney House
C:
R:Reel
Q: 232
K:A
M:4/4
L:1/8
e|aa aa g2 a2|e2 c2 A3A|EE EE A2 c2|f6 a2|gg gg f2 e2|g2 g2 g3B|dd dd c2 B2|Ac f2 e2 fg|
aa aa g2 a2|e2 c2 A3A|EE EE A2 c2|f6 a2|gg gg f2 e2|g2 g2 g3f|ee ee f2 g2|a6 cd|
ee ee a2 c2|f2 e2 e2 cd|ee ee e2 a2|a2 g2 g2 Bc|dd dd c2 d2|g2 d2 f3A|GA Bc de fg|f2 e2 e2 cd|
ee ee a2 c2|f2 e2 e2 cd|ee ee e2 a2|a2 g2 g2 Bc|dd dd c2 d2|g2 d2 f3A|GA Bc de fg|a2 a2 a3||
